!!!!SEGMENT: pl-wtm--iii-41-976--008_kurpinski-karol-kazimierz--wesele-w-ojcowie-andantino.krn
!!!cenid: 18xx:4260
!!!COM: Kurpiński, Karol Kazimierz
!!!COM-rismID: pe30018952
!!!CDT: 1785/03/06-1857/09/18
!!!CNT: Polish
!!!GTL: Wesele w Ojcowie
!!!OTL: Andantino
!!!OMV: 008
!!!PDT:
!!!AGN:
!!!SMS-siglum: PL-Wtm
!!!SMS-shelfmark: III.41.976
!!!SMS-shelfwork: 001-008 G
!!!SMS-variant:
!!!SMS-altvar:
!!!NIFC-rismSourceID: 1001130735
!!!NIFC-rismChildID: 1001130735
!!!NIFC-islandoraID: pl-wtm:23143
!!!URL-pdf-islandora: https://repozytorium.nifc.pl/islandora/object/pl-wtm:23143/datastream/PDF/view
!!!URL-scan: https://polish.musicsources.pl/pl/lokalizacje/galeria/druki-muzyczne/17811/8 @EN{Scan on Polish Music Sources Website} @PL{Skany w portalu Dziedzictwo Muzyki Polskiej w otwartym dostępie}
!!!IIIF:
!!!ONB-nifc: UWAGA: skan 8
!!!OMD: ANDANTINO
!!!OMD-mod: Andantino
!!!AIN: 2 piano
!!!key: c
**kern	**kern
*part2	*part1
*staff2	*staff1
*I"[FORTEPIAN]	*I"[FORTEPIAN]
*I'	*I'
*Ipiano	*Ipiano
*clefF4	*clefG2
*k[b-e-a-]	*k[b-e-a-]
*c:	*c:
*M4/4	*M4/4
*met(c)	*met(c)
=1	=1
2C 2GG 2CC;</	2cc 2e- 2c;</
2r	4r
.	8.cc\L
.	16ee-\Jk
=2	=2
*^	*^
.	16qqC/LL	.	[16qqg/LL
.	[16qqG/JJ	.	[16qqcc/JJ)
(4.e-/	4G\]	(4.gg^/	1cc] 1g]
.	4c\	.	.
8d/)	.	8ff#X/)	.
8.e-/L	4c\	(<8.gg/L	.
16d/K	.	16ff#/K	.
8.e-/	4c\	8.gg/	.
16d/Jk	.	16ff#/Jk)	.
*v	*v	*	*
=3	=3	=3
8e- 8c\	8.gg/L	8g\
8r	.	8r
.	16ee-/Jk	.
8c 8G 8C\	2cc 2e-/	4ryy
8r	.	.
!LO:TX:t=P:problem: ^ na dole	!	!
4C 4CC^^/	.	2ryy
4r	8.bn\L	.
.	16dd\Jk	.
!!LO:LB:g=original
=4	=4	=4
*^	*	*
.	(8qG/	.	(8qg/
(4.d/	2G\)	(4.ff^/	2g\)
8Bn/)	.	8dd/)	.
8d/L	4G\	(8ff/L	4g\
8c/	.	8ee-/	.
8f/	4G\	8dd/	4g\
8e-/J	.	8cc/J)	.
=5	=5	=5	=5
8c/L	4G\	(<8ee-/L	4g\
8Bn/J	.	8dd/J)	.
4B/	4G\	4dd/	4g\
!LO:TX:t=P:problem: ^ na dole	!	!	!
4G 4GG^^/	2ryy	4r	2ryy
4r	.	8.cc\L	.
.	.	16ee-\Jk	.
=6	=6	=6	=6
.	16qqC/LL	.	[16qqg/LL
.	[16qqG/JJ	.	[16qqcc/JJ)
(4.e-/	4G\]	(4.gg^/	1cc] 1g]
.	4c\	.	.
8d/)	.	8ff#X/)	.
8.e-/L	4c\	(<8.gg/L	.
16d/K	.	16ff#/K	.
8.e-/	4c\	8.gg/	.
16d/Jk	.	16ff#/Jk)	.
*v	*v	*	*
!!LO:LB:g=original
=7	=7	=7
8e- 8c\	8.gg/L	8g\
8r	.	8r
.	16ee-/Jk	.
8c 8G 8C\	2cc 2e-/	4ryy
8r	.	.
!LO:TX:t=P:problem: ^ na dole	!	!
4C 4CC^^/	.	2ryy
4r	(8ccL 8e-\	.
.	8ee-J 8g\)	.
*	*v	*v
=8	=8
4r	(8ee-L 8g\
.	8dd 8f\
(4.F 4.FF\	8ff 8a-\
.	8ddJ 8f\
.	8ddL 8f\
8F#X 8FF#X\	8cc 8e-\
4G 4GG\)	8cc 8e-\
.	8bnJ 8d\)
=9	=9
(4C/	2dd 2f\
4GG/	.
4CC/)	4cc 4e-\
4r	4r
==	==
*-	*-
!!!system-decoration: {(s1,s2)}
!!!RDF**kern: > = above
!!!RDF**kern: < = below
!!!RDF**dynam: > = "dim.", fontstyle= "italic"
!!!ENC: Berenika Jozajtis
!!!END: 2022-11-26
!!!ENC: Katarzyna Serwa
!!!END: 2022-12-06
!!!YEC: Copyright 2022 Narodowy Instytut Fryderyka Chopina (https://polishscores.org)
!!!YEM: License CC-BY-4.0 (https://creativecommons.org/licenses/by/4.0)
